svg/24/facecam-off--filled.svg

<svg width="24" height="24" viewBox="0 0 24 24" fill="currentColor" xmlns="http://www.w3.org/2000/svg"><path fill-rule="evenodd" clip-rule="evenodd" d="M2.21967 21.7803C1.92678 21.4874 1.92678 21.0126 2.21967 20.7197L20.7197 2.21967C21.0126 1.92678 21.4874 1.92678 21.7803 2.21967C22.0732 2.51256 22.0732 2.98744 21.7803 3.28033L20.0605 5.00012C20.66 5.00666 21.2248 5.28327 21.5153 5.80859C22.1078 6.88018 23 8.99157 23 11.9912V12.0088C23 15.0084 22.1078 17.1198 21.5153 18.1914C21.2212 18.7231 20.6463 19 20.0388 19L6.06066 19L3.28033 21.7803C2.98744 22.0732 2.51256 22.0732 2.21967 21.7803ZM9.75179 15.3089C10.3925 15.745 11.1665 16 12 16C14.2091 16 16 14.2091 16 12C16 11.1665 15.745 10.3925 15.3089 9.75178L14.2171 10.8436C14.3978 11.1894 14.5 11.5828 14.5 12C14.5 13.3807 13.3807 14.5 12 14.5C11.5828 14.5 11.1894 14.3978 10.8436 14.2171L9.75179 15.3089Z"/><path fill-rule="evenodd" clip-rule="evenodd" d="M8.07031 12.7506L2.53914 18.2818C2.52013 18.2525 2.50202 18.2224 2.48487 18.1913C1.89229 17.1192 1 15.0057 1 12C1 8.99427 1.89229 6.88083 2.48487 5.80867C2.77877 5.27692 3.35368 5 3.96125 5H15.8209L12.7506 8.07031C12.5075 8.02415 12.2566 8 12 8C9.79086 8 8 9.79086 8 12C8 12.2566 8.02416 12.5075 8.07031 12.7506ZM5.25 12.75H3.25C2.83579 12.75 2.5 12.4142 2.5 12C2.5 11.5858 2.83579 11.25 3.25 11.25H5.25C5.66421 11.25 6 11.5858 6 12C6 12.4142 5.66421 12.75 5.25 12.75Z"/></svg>

<svg xmlns="http://www.w3.org/2000/svg" width="24" height="24" fill="currentColor" viewBox="0 0 24 24">
  <path fill-rule="evenodd" d="M2.22 21.78a.75.75 0 0 1 0-1.06l18.5-18.5a.75.75 0 1 1 1.06 1.06L20.06 5c.6.007 1.165.283 1.455.809C22.108 6.88 23 8.992 23 11.99v.018c0 3-.892 5.11-1.485 6.182-.294.532-.869.809-1.476.809H6.06l-2.78 2.78a.75.75 0 0 1-1.061 0Zm7.532-6.471a4 4 0 0 0 5.557-5.557l-1.092 1.092a2.5 2.5 0 0 1-3.373 3.373L9.752 15.31ZM8.07 12.75l-5.53 5.532a1.473 1.473 0 0 1-.055-.09C1.892 17.118 1 15.005 1 12c0-3.006.892-5.12 1.485-6.191C2.779 5.277 3.354 5 3.96 5h11.86l-3.07 3.07a4 4 0 0 0-4.68 4.68Zm-2.82 0h-2a.75.75 0 0 1 0-1.5h2a.75.75 0 0 1 0 1.5Z" clip-rule="evenodd"/>
</svg>
